X: 2824
T: Barack Obama, The
R: reel
M: 4/4
K: Cmajor
DEF|:G4 A4|GFDC DDEF|G4 A4|1 DFEG FDEF:|2 FDEF DFFF||
deBc d3 B|cBAE F4|deBc d3 d|gega a3 d|
deBc d3 B|cBAE F4|deBc de A2|cBAB G3 A||
|:Bddd Beee|BddB G4|Bddd BdgB|1 cdgB A2 GA:|2 GBAG GDEF||

